; generated by PrusaSlicer 2.3.1+linux-x64 on 2021-07-06 at 21:59:51 UTC

; 

; external perimeters extrusion width = 0.45mm
; perimeters extrusion width = 0.45mm
; infill extrusion width = 0.45mm
; solid infill extrusion width = 0.45mm
; top infill extrusion width = 0.40mm
; first layer extrusion width = 0.42mm

M73 P0 R7
M73 Q0 S7
M201 X1000 Y1000 Z200 E5000 ; sets maximum accelerations, mm/sec^2
M203 X200 Y200 Z12 E120 ; sets maximum feedrates, mm/sec
M204 P1250 R1250 T1250 ; sets acceleration (P, T) and retract acceleration (R), mm/sec^2
M205 X8.00 Y8.00 Z0.40 E4.50 ; sets the jerk limits, mm/sec
M205 S0 T0 ; sets the minimum extruding and travel feed rate, mm/sec
M107
;TYPE:Custom
M862.3 P "MK3S" ; printer model check
M862.1 P0.4 ; nozzle diameter check
M115 U3.9.3 ; tell printer latest fw version
G90 ; use absolute coordinates
M83 ; extruder relative mode
M104 S215 ; set extruder temp
M140 S60 ; set bed temp
M190 S60 ; wait for bed temp
M109 S215 ; wait for extruder temp
G28 W ; home all without mesh bed level
G80 ; mesh bed leveling
G1 Y-3.0 F1000.0 ; go outside print area
G92 E0.0
G1 X60.0 E9.0 F1000.0 ; intro line
G1 X100.0 E12.5 F1000.0 ; intro line
G92 E0.0
M221 S95

; Don't change E values below. Excessive value can damage the printer.

M907 E538 ; set extruder motor current
G21 ; set units to millimeters
G90 ; use absolute coordinates
M83 ; use relative distances for extrusion
M900 K0.05 ; Filament gcode LA 1.5
M900 K30 ; Filament gcode LA 1.0
;LAYER_CHANGE
;Z:0.2
;HEIGHT:0.2
;BEFORE_LAYER_CHANGE
G92 E0.0
;0.2


M73 P1 R7
M73 Q1 S7
G1 E-0.80000 F2100.000
G1 Z0.400 F10800.000
;AFTER_LAYER_CHANGE
;0.2
G1 X108.174 Y61.636
G1 Z0.200
G1 E0.80000 F2100.000
M204 S1000
;TYPE:Skirt
;WIDTH:0.42
G1 F1200.000
G1 X108.330 Y60.988 E0.02090
G1 X108.634 Y60.400 E0.02078
G1 X109.074 Y59.898 E0.02090
G1 X109.621 Y59.517 E0.02090
G1 X110.113 Y59.314 E0.01669
G1 X110.630 Y59.211 E0.01656
G1 X112.777 Y59.197 E0.06729
G1 X134.927 Y59.519 E0.69459
G1 X135.524 Y59.621 E0.01899
G1 X136.081 Y59.849 E0.01886
G1 X136.578 Y60.195 E0.01899
G1 X136.987 Y60.641 E0.01899
G1 X137.419 Y61.533 E0.03107
G1 X137.507 Y62.520 E0.03107
G1 X134.686 Y85.707 E0.73237
M73 P2 R7
M73 Q2 S7
G1 X134.560 Y86.253 E0.01758
G1 X134.327 Y86.759 E0.01745
G1 X133.995 Y87.211 E0.01758
G1 X133.582 Y87.583 E0.01745
G1 X132.935 Y87.935 E0.02307
G1 X132.215 Y88.104 E0.02320
G1 X122.905 Y88.809 E0.29274
G1 X121.058 Y88.769 E0.05791
G1 X111.146 Y85.943 E0.32318
G1 X110.400 Y85.555 E0.02638
G1 X109.808 Y84.963 E0.02625
G1 X109.443 Y84.282 E0.02422
G1 X109.281 Y83.527 E0.02422
G1 X108.177 Y61.696 E0.68538
;WIPE_START
G1 F8640.000
G1 X108.330 Y60.988 E-0.16727
G1 X108.634 Y60.400 E-0.15299
G1 X109.074 Y59.898 E-0.15393
G1 X109.621 Y59.517 E-0.15393
G1 X110.113 Y59.314 E-0.12288
G1 X110.151 Y59.307 E-0.00899
;WIPE_END
G1 E-0.04000 F2100.000
G1 Z0.600 F10800.000
G1 X109.842 Y59.827
G1 Z0.200
G1 E0.80000 F2100.000
G1 F1200.000
G1 X110.705 Y59.583 E0.02813
G1 X112.776 Y59.574 E0.06495
G1 X134.890 Y59.894 E0.69344
M73 P3 R7
M73 Q3 S7
G1 X135.404 Y59.979 E0.01633
G1 X135.888 Y60.173 E0.01633
G1 X136.317 Y60.468 E0.01633
G1 X136.672 Y60.849 E0.01633
G1 X137.054 Y61.628 E0.02720
G1 X137.131 Y62.492 E0.02720
G1 X134.313 Y85.657 E0.73168
G1 X134.007 Y86.560 E0.02989
G1 X133.371 Y87.270 E0.02989
G1 X132.802 Y87.583 E0.02036
G1 X132.169 Y87.729 E0.02036
G1 X122.884 Y88.432 E0.29199
G1 X121.102 Y88.395 E0.05586
G1 X111.281 Y85.591 E0.32025
G1 X110.636 Y85.261 E0.02272
G1 X110.120 Y84.751 E0.02272
G1 X109.798 Y84.157 E0.02119
G1 X109.657 Y83.497 E0.02119
G1 X108.546 Y61.702 E0.68423
M73 P4 R7
M73 Q4 S7
G1 X108.681 Y61.125 E0.01858
G1 X108.954 Y60.599 E0.01858
G1 X109.350 Y60.158 E0.01858
G1 X109.792 Y59.861 E0.01670
; printing object window_clip.stl id:0 copy 0
;WIPE_START
G1 F8640.000
G1 X110.705 Y59.583 E-0.22041
G1 X112.776 Y59.574 E-0.47832
G1 X113.042 Y59.578 E-0.06128
;WIPE_END
G1 E-0.04000 F2100.000
G1 Z0.600 F10800.000
G1 X116.591 Y76.230
G1 Z0.200
G1 E0.80000 F2100.000
;TYPE:Perimeter
G1 F1200.000
G1 X117.058 Y76.412 E0.01570
G1 X118.629 Y76.911 E0.05169
G1 X119.310 Y77.171 E0.02283
G1 X120.008 Y77.516 E0.02444
G1 X120.212 Y77.636 E0.00741
G1 X120.383 Y77.762 E0.00665
G1 X120.531 Y77.908 E0.00653
G1 X120.820 Y78.310 E0.01553
G1 X121.087 Y78.842 E0.01866
G1 X121.337 Y79.484 E0.02162
G1 X121.812 Y80.903 E0.04692
G1 X122.081 Y81.620 E0.02401
G1 X122.406 Y82.295 E0.02346
G1 X122.614 Y82.626 E0.01226
G1 X122.853 Y82.930 E0.01213
G1 X123.136 Y83.207 E0.01241
G1 X123.450 Y83.429 E0.01208
G1 X123.767 Y83.598 E0.01125
G1 X124.352 Y83.836 E0.01980
G1 X124.678 Y83.933 E0.01068
G1 X125.289 Y84.060 E0.01955
G1 X125.618 Y84.101 E0.01042
G1 X126.238 Y84.133 E0.01945
G1 X126.855 Y84.107 E0.01935
G1 X127.452 Y84.027 E0.01890
G1 X128.022 Y83.897 E0.01833
G1 X128.550 Y83.722 E0.01742
G1 X128.818 Y83.609 E0.00914
G1 X129.385 Y83.304 E0.02017
G1 X129.733 Y82.845 E0.01804
G1 X129.997 Y82.221 E0.02127
G1 X130.245 Y81.443 E0.02560
G1 X130.502 Y80.491 E0.03090
G1 X131.043 Y78.137 E0.07573
G1 X131.605 Y75.360 E0.08884
G1 X132.160 Y72.377 E0.09514
G1 X132.680 Y69.418 E0.09421
G1 X133.717 Y63.090 E0.20104
G1 X133.828 Y63.087 E0.00349
G1 X130.306 Y83.940 E0.66311
G1 X131.231 Y83.940 E0.02903
G1 X131.203 Y84.551 E0.01919
G1 X122.039 Y84.269 E0.28747
M73 Q5 S7
G1 X121.999 Y83.625 E0.02022
G1 X121.821 Y82.152 E0.04652
M73 P5 R7
G1 X121.630 Y81.158 E0.03175
G1 X121.504 Y80.664 E0.01599
G1 X121.356 Y80.187 E0.01565
G1 X121.181 Y79.727 E0.01543
G1 X120.975 Y79.288 E0.01521
G1 X120.732 Y78.874 E0.01505
G1 X120.445 Y78.491 E0.01498
G1 X120.107 Y78.150 E0.01507
G1 X119.712 Y77.864 E0.01530
G1 X119.276 Y77.659 E0.01508
G1 X118.841 Y77.531 E0.01421
G1 X118.412 Y77.453 E0.01368
G1 X117.977 Y77.421 E0.01370
G1 X117.538 Y77.433 E0.01376
G1 X117.100 Y77.489 E0.01385
G1 X116.665 Y77.589 E0.01398
G1 X116.238 Y77.733 E0.01414
G1 X115.820 Y77.920 E0.01434
G1 X115.417 Y78.150 E0.01456
G1 X115.031 Y78.423 E0.01483
G1 X114.665 Y78.738 E0.01513
G1 X114.324 Y79.095 E0.01548
G1 X114.011 Y79.493 E0.01588
G1 X113.729 Y79.931 E0.01633
G1 X113.482 Y80.408 E0.01684
G1 X113.273 Y80.923 E0.01743
G1 X113.104 Y81.475 E0.01809
G1 X112.979 Y82.062 E0.01884
G1 X112.916 Y82.556 E0.01560
G1 X112.776 Y82.554 E0.00439
G1 X112.796 Y81.849 E0.02211
G1 X112.870 Y81.247 E0.01903
G1 X112.990 Y80.708 E0.01730
G1 X113.147 Y80.228 E0.01584
G1 X113.336 Y79.802 E0.01462
G1 X113.551 Y79.424 E0.01361
G1 X113.786 Y79.091 E0.01277
G1 X114.036 Y78.800 E0.01205
G1 X114.296 Y78.545 E0.01140
G1 X114.561 Y78.326 E0.01078
G1 X114.817 Y78.146 E0.00983
G1 X115.327 Y77.860 E0.01832
G1 X115.740 Y77.690 E0.01402
G1 X116.594 Y77.452 E0.02779
G1 X116.591 Y76.290 E0.03643
G1 X116.285 Y76.082 F10800.000
G1 F1200.000
G1 X115.833 Y75.970 E0.01459
G1 X115.553 Y75.856 E0.00950
G1 X115.281 Y75.699 E0.00983
G1 X115.017 Y75.501 E0.01034
G1 X114.762 Y75.264 E0.01093
G1 X114.516 Y74.991 E0.01150
G1 X114.283 Y74.688 E0.01200
G1 X114.067 Y74.366 E0.01217
G1 X113.668 Y73.649 E0.02572
G1 X113.337 Y72.917 E0.02519
G1 X112.953 Y71.868 E0.03504
G1 X112.608 Y70.701 E0.03815
G1 X112.480 Y69.947 E0.02398
G1 X112.247 Y67.897 E0.06468
G1 X111.771 Y62.738 E0.16245
G1 X112.036 Y62.738 E0.00829
G1 X112.143 Y64.200 E0.04596
G1 X112.352 Y66.307 E0.06640
G1 X112.575 Y67.985 E0.05306
G1 X112.863 Y69.549 E0.04986
G1 X113.096 Y70.445 E0.02904
G1 X113.543 Y71.877 E0.04704
G1 X113.858 Y72.806 E0.03078
G1 X114.075 Y73.373 E0.01901
G1 X114.306 Y73.902 E0.01810
G1 X114.689 Y74.604 E0.02507
G1 X114.994 Y75.035 E0.01658
G1 X115.341 Y75.419 E0.01621
G1 X115.735 Y75.752 E0.01619
G1 X116.231 Y76.056 E0.01822
;WIPE_START
G1 F8640.000
G1 X115.833 Y75.970 E-0.09391
G1 X115.553 Y75.856 E-0.06998
G1 X115.281 Y75.699 E-0.07241
G1 X115.017 Y75.501 E-0.07618
G1 X114.762 Y75.264 E-0.08046
G1 X114.516 Y74.991 E-0.08466
G1 X114.283 Y74.688 E-0.08834
G1 X114.067 Y74.366 E-0.08961
G1 X113.847 Y73.971 E-0.10445
;WIPE_END
G1 E-0.04000 F2100.000
G1 Z0.600 F10800.000
G1 X130.752 Y83.563
G1 Z0.200
G1 E0.80000 F2100.000
;TYPE:External perimeter
G1 F1200.000
G1 X131.626 Y83.563 E0.02742
G1 X131.563 Y84.940 E0.04321
G1 X122.386 Y84.657 E0.28786
G1 X122.348 Y85.642 E0.03090
G1 X121.747 Y85.629 E0.01886
G1 X121.623 Y83.659 E0.06189
G1 X121.449 Y82.210 E0.04576
G1 X121.262 Y81.240 E0.03098
M73 Q6 S7
G1 X121.141 Y80.766 E0.01533
G1 X120.999 Y80.310 E0.01498
G1 X120.833 Y79.874 E0.01462
G1 X120.641 Y79.463 E0.01422
G1 X120.418 Y79.083 E0.01383
G1 X120.159 Y78.738 E0.01350
G1 X119.861 Y78.438 E0.01328
G1 X119.519 Y78.190 E0.01323
G1 X119.142 Y78.013 E0.01308
M73 P6 R7
G1 X118.754 Y77.898 E0.01267
G1 X118.364 Y77.828 E0.01242
G1 X117.968 Y77.798 E0.01247
G1 X117.567 Y77.809 E0.01256
G1 X117.166 Y77.861 E0.01268
G1 X116.768 Y77.952 E0.01282
G1 X116.375 Y78.084 E0.01299
G1 X115.991 Y78.256 E0.01319
G1 X115.620 Y78.468 E0.01342
G1 X115.263 Y78.720 E0.01368
G1 X114.925 Y79.012 E0.01399
G1 X114.609 Y79.342 E0.01434
G1 X114.319 Y79.712 E0.01474
G1 X114.056 Y80.120 E0.01521
G1 X113.825 Y80.566 E0.01575
G1 X113.629 Y81.049 E0.01636
G1 X113.470 Y81.569 E0.01705
G1 X113.351 Y82.126 E0.01784
G1 X113.275 Y82.718 E0.01872
G1 X113.264 Y82.936 E0.00685
G1 X112.418 Y82.928 E0.02655
G1 X112.396 Y82.524 E0.01270
G1 X112.419 Y81.820 E0.02207
G1 X112.498 Y81.183 E0.02013
G1 X112.625 Y80.608 E0.01845
G1 X112.795 Y80.093 E0.01702
G1 X112.999 Y79.632 E0.01581
G1 X113.232 Y79.222 E0.01478
G1 X113.488 Y78.860 E0.01391
G1 X113.760 Y78.541 E0.01313
G1 X114.044 Y78.265 E0.01242
G1 X114.332 Y78.027 E0.01172
G1 X114.616 Y77.826 E0.01089
G1 X115.162 Y77.520 E0.01964
G1 X115.617 Y77.333 E0.01544
G1 X116.216 Y77.166 E0.01949
G1 X116.214 Y76.453 E0.02234
G1 X115.716 Y76.330 E0.01611
G1 X115.386 Y76.195 E0.01116
G1 X115.073 Y76.014 E0.01134
G1 X114.775 Y75.791 E0.01167
G1 X114.493 Y75.529 E0.01208
G1 X114.226 Y75.233 E0.01249
G1 X113.977 Y74.908 E0.01284
G1 X113.745 Y74.563 E0.01304
G1 X113.331 Y73.819 E0.02669
G1 X112.987 Y73.060 E0.02613
G1 X112.595 Y71.986 E0.03585
G1 X112.240 Y70.786 E0.03924
G1 X112.107 Y69.999 E0.02501
G1 X111.872 Y67.936 E0.06513
G1 X111.358 Y62.361 E0.17554
G1 X112.386 Y62.361 E0.03224
G1 X112.519 Y64.167 E0.05680
G1 X112.726 Y66.264 E0.06605
G1 X112.948 Y67.926 E0.05257
G1 X113.231 Y69.467 E0.04914
G1 X113.458 Y70.341 E0.02832
G1 X113.902 Y71.760 E0.04661
G1 X114.213 Y72.679 E0.03041
G1 X114.424 Y73.230 E0.01851
G1 X114.645 Y73.736 E0.01731
G1 X115.009 Y74.404 E0.02386
G1 X115.289 Y74.799 E0.01518
G1 X115.604 Y75.147 E0.01472
G1 X115.959 Y75.448 E0.01458
G1 X116.348 Y75.694 E0.01444
G1 X116.757 Y75.892 E0.01426
G1 X117.183 Y76.056 E0.01430
G1 X118.753 Y76.555 E0.05167
G1 X119.460 Y76.825 E0.02373
G1 X120.188 Y77.184 E0.02546
G1 X120.420 Y77.321 E0.00844
G1 X120.628 Y77.474 E0.00807
G1 X120.812 Y77.654 E0.00808
G1 X120.984 Y77.869 E0.00864
G1 X121.295 Y78.394 E0.01912
G1 X121.434 Y78.694 E0.01037
G1 X121.692 Y79.356 E0.02228
G1 X122.168 Y80.777 E0.04699
G1 X122.428 Y81.472 E0.02327
G1 X122.737 Y82.112 E0.02227
G1 X122.923 Y82.409 E0.01098
G1 X123.134 Y82.678 E0.01073
G1 X123.378 Y82.916 E0.01068
G1 X123.648 Y83.107 E0.01039
G1 X123.927 Y83.256 E0.00989
G1 X124.477 Y83.479 E0.01862
G1 X124.771 Y83.567 E0.00960
G1 X125.350 Y83.688 E0.01857
G1 X125.651 Y83.725 E0.00951
G1 X126.240 Y83.755 E0.01846
G1 X126.822 Y83.731 E0.01827
G1 X127.385 Y83.655 E0.01783
G1 X127.921 Y83.534 E0.01722
G1 X128.416 Y83.369 E0.01638
G1 X128.655 Y83.268 E0.00812
G1 X129.134 Y83.010 E0.01706
G1 X129.404 Y82.655 E0.01399
G1 X129.643 Y82.090 E0.01924
G1 X129.883 Y81.336 E0.02479
G1 X130.136 Y80.398 E0.03047
G1 X130.401 Y79.297 E0.03550
G1 X130.674 Y78.059 E0.03975
G1 X131.235 Y75.288 E0.08864
G1 X131.789 Y72.310 E0.09499
G1 X132.308 Y69.355 E0.09408
G1 X133.395 Y62.724 E0.21069
M73 P7 R7
M73 Q7 S7
G1 X134.277 Y62.695 E0.02767
G1 X130.762 Y83.504 E0.66170
G1 X130.735 Y83.963 F10800.000
G1 X130.242 Y83.637
;TYPE:Solid infill
;WIDTH:0.421565
G1 F1200.000
G1 X129.813 Y83.208 E0.01912
G1 X129.581 Y83.512 E0.01203
G1 X129.877 Y83.808 E0.01319
G1 X129.789 Y83.807 E0.00278
G1 X129.783 Y84.225 E0.01315
G1 X129.758 Y84.224 E0.00080
G1 X129.238 Y83.704 E0.02315
G1 X128.886 Y83.887 E0.01250
G1 X129.380 Y84.382 E0.02203
G1 X130.066 Y84.228 F10800.000
;TYPE:Gap fill
;WIDTH:0.26813
G1 F1200.000
G1 X131.029 Y84.243 E0.01804
;WIPE_START
G1 F8640.000
G1 X130.066 Y84.228 E-0.22239
;WIPE_END
G1 E-0.57761 F2100.000
G1 Z0.600 F10800.000
G1 X130.138 Y82.799
G1 Z0.200
G1 E0.80000 F2100.000
;WIDTH:0.261019
G1 F1200.000
G1 X130.343 Y82.050 E0.01409
;WIDTH:0.142992
G1 X130.590 Y80.979 E0.00914
;WIPE_START
G1 F8640.000
G1 X130.343 Y82.050 E-0.25374
;WIPE_END
G1 E-0.54626 F2100.000
G1 Z0.600 F10800.000
G1 X128.439 Y84.122
G1 Z0.200
G1 E0.80000 F2100.000
;WIDTH:0.307861
G1 F1200.000
G1 X128.271 Y84.146 E0.00373
;WIDTH:0.271779
G1 X128.103 Y84.171 E0.00323
;WIDTH:0.235696
G1 X127.903 Y84.190 E0.00323
;WIDTH:0.186353
G1 X127.712 Y84.209 E0.00229
;WIDTH:0.139836
G1 X127.521 Y84.227 E0.00155
;WIPE_START
G1 F8640.000
G1 X127.712 Y84.209 E-0.04430
;WIPE_END
G1 E-0.75570 F2100.000
G1 Z0.600 F10800.000
G1 X124.629 Y84.138
G1 Z0.200
G1 E0.80000 F2100.000
;WIDTH:0.137244
G1 F1200.000
G1 X124.106 Y84.045 E0.00417
;WIDTH:0.26561
G1 X123.791 Y83.979 E0.00595
;WIPE_START
G1 F8640.000
G1 X124.106 Y84.045 E-0.07416
;WIPE_END
G1 E-0.72584 F2100.000
G1 Z0.600 F10800.000
G1 X122.034 Y84.457
G1 Z0.200
G1 E0.80000 F2100.000
;WIDTH:0.369146
G1 F1200.000
G1 X122.040 Y84.952 E0.01342
;WIDTH:0.333787
G1 X122.046 Y85.447 E0.01197
;WIPE_START
G1 F8640.000
G1 X122.040 Y84.952 E-0.11425
;WIPE_END
G1 E-0.68575 F2100.000
G1 Z0.600 F10800.000
G1 X122.416 Y82.679
G1 Z0.200
G1 E0.80000 F2100.000
;TYPE:Solid infill
;WIDTH:0.495415
G1 F1200.000
G1 X123.540 Y83.803 E0.05980
G1 X123.491 Y84.031 E0.00875
G1 X123.116 Y84.019 E0.01414
G1 X122.224 Y83.127 E0.04746
G1 X122.296 Y83.839 E0.02692
G1 X122.631 Y84.174 E0.01782
;WIPE_START
G1 F8640.000
G1 X122.296 Y83.839 E-0.10933
G1 X122.224 Y83.127 E-0.16521
G1 X123.116 Y84.019 E-0.29123
G1 X123.491 Y84.031 E-0.08679
G1 X123.540 Y83.803 E-0.05373
G1 X123.375 Y83.639 E-0.05371
;WIPE_END
G1 E-0.04000 F2100.000
G1 Z0.600 F10800.000
G1 X122.212 Y82.626
G1 Z0.200
G1 E0.80000 F2100.000
;TYPE:Gap fill
;WIDTH:0.25286
M73 Q8 S7
G1 F1200.000
G1 X122.118 Y82.326 E0.00549
;WIDTH:0.212721
G1 X122.087 Y82.222 E0.00154
;WIDTH:0.177101
G1 X122.057 Y82.117 E0.00121
;WIDTH:0.14148
G1 X121.990 Y81.916 E0.00173
;WIPE_START
G1 F8640.000
G1 X122.057 Y82.117 E-0.04883
;WIPE_END
G1 E-0.75117 F2100.000
G1 Z0.600 F10800.000
M73 P8 R7
G1 X120.579 Y78.327
G1 Z0.200
G1 E0.80000 F2100.000
;WIDTH:0.115614
G1 F1200.000
G1 X120.257 Y77.969 E0.00291
G1 X119.827 Y77.674 E0.00315
G1 X119.354 Y77.446 E0.00317
G1 X118.715 Y77.233 E0.00407
;WIDTH:0.241133
G1 X118.000 Y77.075 E0.01208
G1 X117.521 Y77.321 F10800.000
;TYPE:Solid infill
;WIDTH:0.495415
G1 F1200.000
G1 X116.705 Y76.504 E0.04346
;WIPE_START
G1 F8640.000
G1 X117.521 Y77.321 E-0.26671
;WIPE_END
G1 E-0.53329 F2100.000
G1 Z0.600 F10800.000
G1 X114.289 Y74.315
G1 Z0.200
G1 E0.80000 F2100.000
;TYPE:Gap fill
;WIDTH:0.0976695
G1 F1200.000
G1 X113.884 Y73.540 E0.00398
G1 X113.612 Y72.894 E0.00319
;WIDTH:0.195509
G1 X113.219 Y71.780 E0.01499
G1 X112.873 Y70.640 E0.01512
G1 X112.778 Y70.215 E0.00552
;WIDTH:0.164024
G1 X112.714 Y69.914 E0.00310
;WIDTH:0.137406
G1 X112.652 Y69.581 E0.00266
; stop printing object window_clip.stl id:0 copy 0
M106 S84.15
;LAYER_CHANGE
;Z:0.4
;HEIGHT:0.2
;BEFORE_LAYER_CHANGE
G92 E0.0
;0.4


;WIPE_START
G1 F8640.000
G1 X112.714 Y69.914 E-0.07813
;WIPE_END
G1 E-0.72187 F2100.000
G1 Z0.600 F10800.000
;AFTER_LAYER_CHANGE
;0.4
G1 X137.419 Y61.533
G1 Z0.400
G1 E0.80000 F2100.000
;TYPE:Skirt
;WIDTH:0.42
G1 F2317
G1 X137.507 Y62.520 E0.03107
G1 X134.686 Y85.707 E0.73237
G1 X134.560 Y86.253 E0.01758
G1 X134.327 Y86.759 E0.01745
G1 X133.995 Y87.211 E0.01758
G1 X133.582 Y87.583 E0.01745
G1 X132.935 Y87.935 E0.02307
G1 X132.215 Y88.104 E0.02320
G1 X122.905 Y88.809 E0.29274
G1 X121.058 Y88.769 E0.05791
G1 X111.146 Y85.943 E0.32318
G1 X110.400 Y85.555 E0.02638
G1 X109.808 Y84.963 E0.02625
G1 X109.443 Y84.282 E0.02422
G1 X109.281 Y83.527 E0.02422
