; generated by PrusaSlicer 2.3.1+linux-x64 on 2021-07-01 at 01:45:24 UTC

; 

; external perimeters extrusion width = 0.45mm
; perimeters extrusion width = 0.45mm
; infill extrusion width = 0.45mm
; solid infill extrusion width = 0.45mm
; top infill extrusion width = 0.40mm
; first layer extrusion width = 0.42mm

M73 P0 R7
M73 Q0 S7
M201 X1000 Y1000 Z200 E5000 ; sets maximum accelerations, mm/sec^2
M203 X200 Y200 Z12 E120 ; sets maximum feedrates, mm/sec
M204 P1250 R1250 T1250 ; sets acceleration (P, T) and retract acceleration (R), mm/sec^2
M205 X8.00 Y8.00 Z0.40 E4.50 ; sets the jerk limits, mm/sec
M205 S0 T0 ; sets the minimum extruding and travel feed rate, mm/sec
M107
;TYPE:Custom
M862.3 P "MK3S" ; printer model check
M862.1 P0.4 ; nozzle diameter check
M115 U3.9.3 ; tell printer latest fw version
G90 ; use absolute coordinates
M83 ; extruder relative mode
M104 S215 ; set extruder temp
M140 S60 ; set bed temp
M190 S60 ; wait for bed temp
M109 S215 ; wait for extruder temp
G28 W ; home all without mesh bed level
G80 ; mesh bed leveling
G1 Y-3.0 F1000.0 ; go outside print area
G92 E0.0
G1 X60.0 E9.0 F1000.0 ; intro line
G1 X100.0 E12.5 F1000.0 ; intro line
G92 E0.0
M221 S95

; Don't change E values below. Excessive value can damage the printer.

M907 E538 ; set extruder motor current
G21 ; set units to millimeters
G90 ; use absolute coordinates
M83 ; use relative distances for extrusion
M900 K0.05 ; Filament gcode LA 1.5
M900 K30 ; Filament gcode LA 1.0
;LAYER_CHANGE
;Z:0.2
;HEIGHT:0.2
;BEFORE_LAYER_CHANGE
G92 E0.0
;0.2


M73 P1 R7
M73 Q1 S7
G1 E-0.80000 F2100.000
G1 Z0.400 F10800.000
;AFTER_LAYER_CHANGE
;0.2
G1 X111.689 Y115.360
G1 Z0.200
G1 E0.80000 F2100.000
M204 S1000
;TYPE:Skirt
;WIDTH:0.42
G1 F1200.000
G1 X111.429 Y114.404 E0.03107
G1 X110.339 Y93.347 E0.66113
G1 X110.369 Y92.791 E0.01745
G1 X110.511 Y92.252 E0.01745
G1 X110.757 Y91.753 E0.01745
G1 X111.099 Y91.314 E0.01745
G1 X111.499 Y90.969 E0.01656
G1 X111.961 Y90.705 E0.01669
G1 X112.465 Y90.535 E0.01669
G1 X112.989 Y90.465 E0.01656
M73 Q2 S7
G1 X136.913 Y90.350 E0.75014
M73 P2 R7
G1 X137.459 Y90.405 E0.01720
G1 X137.983 Y90.568 E0.01720
G1 X138.464 Y90.831 E0.01720
G1 X138.887 Y91.187 E0.01733
G1 X139.227 Y91.617 E0.01720
G1 X139.476 Y92.105 E0.01720
G1 X139.623 Y92.634 E0.01720
G1 X139.663 Y93.185 E0.01733
G1 X136.825 Y116.588 E0.73915
G1 X136.577 Y117.400 E0.02663
G1 X136.090 Y118.101 E0.02676
G1 X135.328 Y118.663 E0.02968
G1 X134.421 Y118.933 E0.02968
G1 X125.054 Y119.645 E0.29454
G1 X123.281 Y119.613 E0.05561
G1 X122.753 Y119.517 E0.01681
G1 X113.349 Y116.798 E0.30692
G1 X112.774 Y116.542 E0.01975
G1 X112.271 Y116.162 E0.01975
G1 X111.725 Y115.409 E0.02919
G1 X112.029 Y115.192 F10800.000
G1 F1200.000
G1 X111.804 Y114.359 E0.02703
G1 X110.716 Y93.328 E0.66030
M73 P3 R7
M73 Q3 S7
G1 X110.867 Y92.376 E0.03024
G1 X111.385 Y91.561 E0.03024
G1 X112.127 Y91.044 E0.02837
G1 X113.012 Y90.841 E0.02849
G1 X136.914 Y90.727 E0.74942
G1 X137.844 Y90.919 E0.02977
G1 X138.625 Y91.459 E0.02977
G1 X139.132 Y92.261 E0.02977
G1 X139.285 Y93.202 E0.02989
G1 X136.452 Y116.531 E0.73681
G1 X136.233 Y117.245 E0.02343
G1 X135.805 Y117.853 E0.02331
G1 X135.146 Y118.332 E0.02555
G1 X134.360 Y118.561 E0.02567
G1 X125.032 Y119.268 E0.29330
G1 X123.304 Y119.236 E0.05419
G1 X113.466 Y116.440 E0.32070
M73 Q4 S7
G1 X112.959 Y116.214 E0.01740
G1 X112.518 Y115.877 E0.01740
G1 X112.064 Y115.240 E0.02452
; printing object window_clip.stl id:0 copy 0
;WIPE_START
G1 F8640.000
G1 X111.804 Y114.359 E-0.21213
G1 X111.681 Y111.990 E-0.54787
;WIPE_END
G1 E-0.04000 F2100.000
G1 Z0.600 F10800.000
G1 X114.921 Y113.391
M73 P4 R7
G1 Z0.200
G1 E0.80000 F2100.000
;TYPE:Perimeter
G1 F1200.000
G1 X114.940 Y112.685 E0.02211
G1 X115.015 Y112.083 E0.01903
G1 X115.134 Y111.544 E0.01730
G1 X115.292 Y111.064 E0.01584
G1 X115.481 Y110.638 E0.01462
G1 X115.695 Y110.260 E0.01361
G1 X115.930 Y109.928 E0.01277
G1 X116.181 Y109.636 E0.01205
G1 X116.441 Y109.381 E0.01140
G1 X116.706 Y109.163 E0.01078
G1 X116.962 Y108.982 E0.00983
G1 X117.471 Y108.696 E0.01832
G1 X117.885 Y108.526 E0.01402
G1 X118.737 Y108.289 E0.02774
G1 X118.728 Y106.989 E0.04076
G1 X117.964 Y106.806 E0.02464
G1 X117.670 Y106.695 E0.00985
G1 X117.387 Y106.548 E0.01000
G1 X117.115 Y106.366 E0.01026
G1 X116.854 Y106.154 E0.01056
G1 X116.605 Y105.914 E0.01083
G1 X116.375 Y105.658 E0.01078
G1 X115.945 Y105.081 E0.02257
G1 X115.590 Y104.495 E0.02148
G1 X115.188 Y103.669 E0.02880
G1 X114.954 Y103.071 E0.02015
G1 X114.904 Y102.922 E0.00493
G1 X113.966 Y94.018 E0.28071
G1 X114.238 Y94.022 E0.00854
G1 X115.448 Y102.642 E0.27291
G1 X115.549 Y103.102 E0.01479
G1 X115.674 Y103.528 E0.01392
G1 X115.821 Y103.923 E0.01322
G1 X115.991 Y104.297 E0.01287
G1 X116.361 Y104.927 E0.02291
G1 X116.773 Y105.451 E0.02090
G1 X117.195 Y105.867 E0.01858
G1 X117.601 Y106.185 E0.01616
G1 X117.973 Y106.421 E0.01381
G1 X118.473 Y106.659 E0.01737
G1 X119.117 Y106.864 E0.02119
G1 X119.959 Y107.062 E0.02710
G1 X120.862 Y107.211 E0.02872
G1 X121.985 Y107.331 E0.03540
G1 X122.277 Y107.376 E0.00927
G1 X122.803 Y107.495 E0.01689
G1 X123.223 Y107.637 E0.01391
G1 X123.553 Y107.791 E0.01142
G1 X123.950 Y108.051 E0.01487
G1 X124.247 Y108.326 E0.01271
G1 X124.496 Y108.619 E0.01206
G1 X124.740 Y108.954 E0.01299
G1 X124.853 Y109.416 E0.01491
G1 X124.972 Y110.353 E0.02961
G1 X125.050 Y111.449 E0.03445
G1 X125.102 Y112.831 E0.04336
G1 X125.124 Y114.618 E0.05604
G1 X131.653 Y114.762 E0.20475
G1 X135.837 Y93.927 E0.66630
M73 Q5 S7
G1 X135.973 Y93.923 E0.00426
G1 X132.450 Y114.776 E0.66311
M73 P5 R7
G1 X133.376 Y114.776 E0.02903
G1 X133.348 Y115.387 E0.01919
G1 X124.285 Y115.108 E0.28429
G1 X124.303 Y113.777 E0.04172
G1 X124.265 Y112.424 E0.04244
G1 X124.182 Y111.549 E0.02758
G1 X124.024 Y110.712 E0.02669
G1 X123.908 Y110.320 E0.01282
G1 X123.758 Y109.946 E0.01264
G1 X123.564 Y109.593 E0.01264
G1 X123.313 Y109.268 E0.01289
G1 X123.014 Y109.008 E0.01242
G1 X122.710 Y108.818 E0.01126
G1 X122.159 Y108.565 E0.01899
G1 X121.594 Y108.401 E0.01846
G1 X121.045 Y108.309 E0.01744
G1 X120.528 Y108.273 E0.01626
G1 X120.052 Y108.277 E0.01490
G1 X119.463 Y108.327 E0.01855
G1 X118.881 Y108.426 E0.01852
G1 X118.244 Y108.631 E0.02099
G1 X117.760 Y108.828 E0.01636
G1 X117.253 Y109.101 E0.01807
G1 X116.971 Y109.292 E0.01066
G1 X116.474 Y109.725 E0.02067
G1 X116.223 Y110.008 E0.01189
G1 X115.994 Y110.318 E0.01208
G1 X115.783 Y110.664 E0.01269
G1 X115.594 Y111.046 E0.01338
G1 X115.428 Y111.466 E0.01415
G1 X115.288 Y111.924 E0.01503
G1 X115.175 Y112.422 E0.01602
G1 X115.090 Y112.963 E0.01714
G1 X115.050 Y113.392 E0.01352
G1 X114.981 Y113.391 E0.00218
;WIPE_START
G1 F8640.000
G1 X114.940 Y112.685 E-0.16319
G1 X115.015 Y112.083 E-0.14014
G1 X115.134 Y111.544 E-0.12744
G1 X115.292 Y111.064 E-0.11667
G1 X115.481 Y110.638 E-0.10768
G1 X115.695 Y110.260 E-0.10025
G1 X115.707 Y110.244 E-0.00462
;WIPE_END
G1 E-0.04000 F2100.000
G1 Z0.600 F10800.000
G1 X132.897 Y114.399
G1 Z0.200
G1 E0.80000 F2100.000
;TYPE:External perimeter
G1 F1200.000
G1 X133.771 Y114.399 E0.02742
G1 X133.708 Y115.776 E0.04321
G1 X124.531 Y115.493 E0.28786
G1 X124.493 Y116.478 E0.03090
G1 X123.904 Y116.466 E0.01846
G1 X123.925 Y113.780 E0.08420
G1 X123.888 Y112.447 E0.04181
G1 X123.807 Y111.596 E0.02681
G1 X123.743 Y111.191 E0.01288
G1 X123.659 Y110.806 E0.01234
G1 X123.552 Y110.444 E0.01184
G1 X123.417 Y110.108 E0.01137
G1 X123.248 Y109.800 E0.01100
G1 X123.037 Y109.528 E0.01080
G1 X122.789 Y109.312 E0.01032
G1 X122.530 Y109.150 E0.00956
G1 X122.027 Y108.919 E0.01736
G1 X121.510 Y108.769 E0.01689
G1 X121.001 Y108.684 E0.01618
G1 X120.516 Y108.651 E0.01523
G1 X120.070 Y108.654 E0.01400
G1 X119.511 Y108.701 E0.01759
G1 X118.971 Y108.793 E0.01716
G1 X118.373 Y108.986 E0.01971
G1 X117.921 Y109.169 E0.01528
G1 X117.448 Y109.424 E0.01683
G1 X117.202 Y109.591 E0.00934
M73 Q6 S7
G1 X116.740 Y109.993 E0.01920
G1 X116.516 Y110.246 E0.01060
G1 X116.307 Y110.529 E0.01102
G1 X116.114 Y110.846 E0.01165
G1 X115.939 Y111.199 E0.01236
G1 X115.784 Y111.590 E0.01319
G1 X115.653 Y112.021 E0.01412
G1 X115.545 Y112.493 E0.01518
G1 X115.465 Y113.009 E0.01637
G1 X115.405 Y113.772 E0.02400
G1 X114.563 Y113.764 E0.02640
G1 X114.541 Y113.360 E0.01270
G1 X114.564 Y112.656 E0.02207
G1 X114.643 Y112.019 E0.02013
G1 X114.770 Y111.444 E0.01845
M73 P6 R7
G1 X114.940 Y110.929 E0.01702
G1 X115.144 Y110.468 E0.01581
G1 X115.377 Y110.058 E0.01478
G1 X115.633 Y109.696 E0.01391
G1 X115.905 Y109.378 E0.01313
G1 X116.188 Y109.101 E0.01242
G1 X116.477 Y108.863 E0.01172
G1 X116.761 Y108.663 E0.01089
G1 X117.307 Y108.356 E0.01964
G1 X117.762 Y108.169 E0.01544
G1 X118.358 Y108.003 E0.01940
G1 X118.353 Y107.287 E0.02245
G1 X117.853 Y107.168 E0.01613
G1 X117.515 Y107.040 E0.01132
G1 X117.195 Y106.872 E0.01134
G1 X116.891 Y106.670 E0.01146
G1 X116.603 Y106.436 E0.01161
G1 X116.333 Y106.176 E0.01176
G1 X116.083 Y105.897 E0.01175
G1 X115.631 Y105.292 E0.02368
G1 X115.259 Y104.675 E0.02259
G1 X114.843 Y103.821 E0.02980
G1 X114.599 Y103.199 E0.02093
G1 X114.533 Y103.002 E0.00652
G1 X113.547 Y93.634 E0.29534
G1 X114.567 Y93.650 E0.03200
G1 X115.819 Y102.575 E0.28257
G1 X115.914 Y103.009 E0.01392
G1 X116.032 Y103.409 E0.01309
G1 X116.170 Y103.779 E0.01238
G1 X116.326 Y104.123 E0.01183
G1 X116.673 Y104.714 E0.02149
G1 X117.054 Y105.199 E0.01936
G1 X117.444 Y105.584 E0.01716
G1 X117.818 Y105.877 E0.01489
G1 X118.155 Y106.090 E0.01251
G1 X118.612 Y106.308 E0.01586
G1 X119.218 Y106.500 E0.01993
G1 X120.033 Y106.692 E0.02625
G1 X120.913 Y106.837 E0.02798
G1 X122.034 Y106.957 E0.03534
G1 X122.348 Y107.006 E0.00996
G1 X122.904 Y107.132 E0.01789
G1 X123.363 Y107.286 E0.01518
G1 X123.737 Y107.460 E0.01294
G1 X124.183 Y107.753 E0.01670
G1 X124.520 Y108.064 E0.01439
G1 X124.793 Y108.386 E0.01322
G1 X125.075 Y108.774 E0.01505
G1 X125.120 Y108.894 E0.00400
G1 X125.225 Y109.350 E0.01468
G1 X125.348 Y110.316 E0.03053
G1 X125.427 Y111.428 E0.03498
G1 X125.479 Y112.821 E0.04371
G1 X125.497 Y114.249 E0.04476
G1 X131.345 Y114.378 E0.18343
G1 X135.526 Y93.560 E0.66576
G1 X136.422 Y93.531 E0.02809
G1 X132.907 Y114.340 E0.66170
M73 P7 R7
M73 Q7 S7
G1 X132.880 Y114.799 F10800.000
G1 X132.402 Y114.383
;TYPE:Solid infill
;WIDTH:0.436505
G1 F1200.000
G1 X132.082 Y114.062 E0.01483
G1 X131.989 Y114.526 E0.01547
G1 X132.281 Y114.818 E0.01353
G1 X132.211 Y115.064 F10800.000
;TYPE:Gap fill
;WIDTH:0.26813
G1 F1200.000
G1 X133.174 Y115.079 E0.01804
;WIPE_START
G1 F8640.000
G1 X132.211 Y115.064 E-0.22239
;WIPE_END
G1 E-0.57761 F2100.000
G1 Z0.600 F10800.000
G1 X131.787 Y115.052
G1 Z0.200
G1 E0.80000 F2100.000
;WIDTH:0.239395
G1 F1200.000
G1 X128.363 Y114.961 E0.05596
;WIDTH:0.210083
G1 X124.939 Y114.871 E0.04761
G1 X124.222 Y115.295 F10800.000
;WIDTH:0.295298
G1 F1200.000
G1 X124.207 Y115.871 E0.01210
;WIDTH:0.283617
G1 X124.201 Y116.283 E0.00825
;WIPE_START
G1 F8640.000
G1 X124.207 Y115.871 E-0.09517
;WIPE_END
G1 E-0.70483 F2100.000
G1 Z0.600 F10800.000
G1 X123.333 Y107.812
G1 Z0.200
G1 E0.80000 F2100.000
;TYPE:Solid infill
;WIDTH:0.421437
G1 F1200.000
G1 X124.047 Y108.527 E0.03178
G1 X124.274 Y108.794 E0.01105
G1 X124.479 Y109.075 E0.01095
G1 X124.592 Y109.608 E0.01713
G1 X122.766 Y107.781 E0.08129
G1 X122.082 Y107.632 E0.02205
G1 X124.670 Y110.221 E0.11523
G1 X124.721 Y110.807 E0.01851
G1 X124.190 Y110.276 E0.02364
G1 X124.014 Y109.825 E0.01522
G1 X123.801 Y109.437 E0.01392
G1 X123.519 Y109.073 E0.01451
G1 X123.183 Y108.780 E0.01404
G1 X122.844 Y108.568 E0.01258
G1 X122.195 Y108.281 E0.02232
G1 X121.475 Y107.561 E0.03206
G1 X120.876 Y107.497 E0.01897
G1 X121.473 Y108.094 E0.02657
G1 X121.078 Y108.028 E0.01259
G1 X120.856 Y108.013 E0.00699
G1 X120.238 Y107.395 E0.02751
G1 X119.569 Y107.261 E0.02148
G1 X120.301 Y107.993 E0.03257
G1 X119.789 Y108.016 E0.01614
G1 X119.013 Y107.240 E0.03453
G1 X119.017 Y107.779 E0.01696
G1 X119.452 Y108.214 E0.01937
;WIPE_START
G1 F8640.000
G1 X119.017 Y107.779 E-0.14214
G1 X119.013 Y107.240 E-0.12446
G1 X119.789 Y108.016 E-0.25333
G1 X120.301 Y107.993 E-0.11838
G1 X119.928 Y107.620 E-0.12169
;WIPE_END
G1 E-0.04000 F2100.000
G1 Z0.600 F10800.000
G1 X124.150 Y110.771
G1 Z0.200
G1 E0.80000 F2100.000
G1 F1200.000
G1 X124.762 Y111.383 E0.02722
G1 X124.785 Y111.942 E0.01761
G1 X124.473 Y111.630 E0.01389
G1 X124.530 Y112.221 E0.01870
G1 X124.806 Y112.498 E0.01231
G1 X124.822 Y113.049 E0.01734
G1 X124.558 Y112.785 E0.01174
G1 X124.573 Y113.335 E0.01734
G1 X124.828 Y113.591 E0.01136
G1 X124.835 Y114.133 E0.01706
G1 X124.584 Y113.882 E0.01118
G1 X124.577 Y114.410 E0.01664
G1 X124.831 Y114.664 E0.01130
;WIPE_START
G1 F8640.000
G1 X124.577 Y114.410 E-0.08291
G1 X124.584 Y113.882 E-0.12204
G1 X124.835 Y114.133 E-0.08203
G1 X124.828 Y113.591 E-0.12519
G1 X124.573 Y113.335 E-0.08336
M73 Q8 S7
G1 X124.558 Y112.785 E-0.12719
G1 X124.822 Y113.049 E-0.08614
G1 X124.815 Y112.827 E-0.05114
;WIPE_END
G1 E-0.04000 F2100.000
G1 Z0.600 F10800.000
G1 X132.280 Y113.541
G1 Z0.200
M73 P8 R7
G1 E0.80000 F2100.000
;TYPE:Gap fill
;WIDTH:0.408539
G1 F1200.000
G1 X132.550 Y112.077 E0.04527
;WIDTH:0.273445
G1 X133.362 Y107.684 E0.08562
;WIDTH:0.138351
G1 X134.174 Y103.291 E0.03545
;WIPE_START
G1 F8640.000
G1 X133.576 Y106.528 E-0.76000
;WIPE_END
G1 E-0.04000 F2100.000
G1 Z0.600 F10800.000
G1 X117.417 Y106.312
G1 Z0.200
G1 E0.80000 F2100.000
;WIDTH:0.107588
G1 F1200.000
G1 X117.049 Y106.031 E0.00249
G1 X116.612 Y105.597 E0.00331
;WIDTH:0.0999292
G1 X116.219 Y105.092 E0.00304
G1 X116.188 Y105.052 F10800.000
;WIDTH:0.102854
G1 F1200.000
G1 X115.787 Y104.388 E0.00387
G1 X115.421 Y103.567 E0.00448
;WIDTH:0.210137
G1 X115.194 Y102.859 E0.01034
G1 X114.997 Y101.307 E0.02175
;WIDTH:0.188619
G1 X114.827 Y99.925 E0.01686
;WIDTH:0.14097
G1 X114.657 Y98.544 E0.01135
; stop printing object window_clip.stl id:0 copy 0
M106 S84.15
;LAYER_CHANGE
;Z:0.4
;HEIGHT:0.2
;BEFORE_LAYER_CHANGE
G92 E0.0
;0.4


;WIPE_START
G1 F8640.000
G1 X114.827 Y99.925 E-0.32139
;WIPE_END
G1 E-0.47861 F2100.000
G1 Z0.600 F10800.000
;AFTER_LAYER_CHANGE
;0.4
G1 X111.689 Y115.360
G1 Z0.400
G1 E0.80000 F2100.000
;TYPE:Skirt
;WIDTH:0.42
G1 F2562
G1 X111.429 Y114.404 E0.03107
G1 X110.339 Y93.347 E0.66113
G1 X110.369 Y92.791 E0.01745
G1 X110.511 Y92.252 E0.01745
G1 X110.757 Y91.753 E0.01745
G1 X111.099 Y91.314 E0.01745
G1 X111.499 Y90.969 E0.01656
G1 X111.961 Y90.705 E0.01669
G1 X112.465 Y90.535 E0.01669
G1 X112.989 Y90.465 E0.01656
G1 X136.913 Y90.350 E0.75014
G1 X137.459 Y90.405 E0.01720
G1 X137.983 Y90.568 E0.01720
G1 X138.464 Y90.831 E0.01720
G1 X138.887 Y91.187 E0.01733
G1 X139.227 Y91.617 E0.01720
G1 X139.476 Y92.105 E0.01720
G1 X139.623 Y92.634 E0.01720
G1 X139.663 Y93.185 E0.01733
G1 X136.825 Y116.588 E0.73915
G1 X136.577 Y117.400 E0.02663
G1 X136.090 Y118.101 E0.02676
G1 X135.328 Y118.663 E0.02968
G1 X134.421 Y118.933 E0.02968
G1 X125.054 Y119.645 E0.29454
M73 Q9 S7
G1 X123.281 Y119.613 E0.05561
G1 X122.753 Y119.517 E0.01681
G1 X113.349 Y116.798 E0.30692
M73 P9 R7
G1 X112.774 Y116.542 E0.01975
G1 X112.271 Y116.162 E0.01975
G1 X111.725 Y115.409 E0.02919
G1 X112.029 Y115.192 F10800.000
G1 F2562
G1 X111.804 Y114.359 E0.02703
G1 X110.716 Y93.328 E0.66030
G1 X110.867 Y92.376 E0.03024
G1 X111.385 Y91.561 E0.03024
G1 X112.127 Y91.044 E0.02837
G1 X113.012 Y90.841 E0.02849
G1 X136.914 Y90.727 E0.74942
G1 X137.844 Y90.919 E0.02977
G1 X138.625 Y91.459 E0.02977
G1 X139.132 Y92.261 E0.02977
G1 X139.285 Y93.202 E0.02989
G1 X136.452 Y116.531 E0.73681
G1 X136.233 Y117.245 E0.02343
G1 X135.805 Y117.853 E0.02331
G1 X135.146 Y118.332 E0.02555
G1 X134.360 Y118.561 E0.02567
G1 X125.032 Y119.268 E0.29330
G1 X123.304 Y119.236 E0.05419
G1 X113.466 Y116.440 E0.32070
G1 X112.959 Y116.214 E0.01740
G1 X112.518 Y115.877 E0.01740
G1 X112.064 Y115.240 E0.02452
; printing object window_clip.stl id:0 copy 0
;WIPE_START
G1 F8640.000
G1 X111.804 Y114.359 E-0.21213
G1 X111.681 Y111.990 E-0.54787
;WIPE_END
G1 E-0.04000 F2100.000
G1 Z0.800 F10800.000
G1 X114.773 Y113.544
G1 Z0.400
G1 E0.80000 F2100.000
M204 S800
;TYPE:Perimeter
;WIDTH:0.45
G1 F2562
G1 X114.786 Y112.673 E0.02947
G1 X114.862 Y112.057 E0.02103
G1 X114.985 Y111.503 E0.01919
G1 X115.147 Y111.009 E0.01762
