; generated by PrusaSlicer 2.3.1+linux-x64 on 2021-07-06 at 22:28:57 UTC

; 

; external perimeters extrusion width = 0.45mm
; perimeters extrusion width = 0.45mm
; infill extrusion width = 0.45mm
; solid infill extrusion width = 0.45mm
; top infill extrusion width = 0.40mm
; first layer extrusion width = 0.42mm

M73 P0 R8
M73 Q0 S8
M201 X1000 Y1000 Z200 E5000 ; sets maximum accelerations, mm/sec^2
M203 X200 Y200 Z12 E120 ; sets maximum feedrates, mm/sec
M204 P1250 R1250 T1250 ; sets acceleration (P, T) and retract acceleration (R), mm/sec^2
M205 X8.00 Y8.00 Z0.40 E4.50 ; sets the jerk limits, mm/sec
M205 S0 T0 ; sets the minimum extruding and travel feed rate, mm/sec
M107
;TYPE:Custom
M862.3 P "MK3S" ; printer model check
M862.1 P0.4 ; nozzle diameter check
M115 U3.9.3 ; tell printer latest fw version
G90 ; use absolute coordinates
M83 ; extruder relative mode
M104 S215 ; set extruder temp
M140 S60 ; set bed temp
M190 S60 ; wait for bed temp
M109 S215 ; wait for extruder temp
G28 W ; home all without mesh bed level
G80 ; mesh bed leveling
G1 Y-3.0 F1000.0 ; go outside print area
G92 E0.0
G1 X60.0 E9.0 F1000.0 ; intro line
G1 X100.0 E12.5 F1000.0 ; intro line
G92 E0.0
M221 S95

; Don't change E values below. Excessive value can damage the printer.

M907 E538 ; set extruder motor current
G21 ; set units to millimeters
G90 ; use absolute coordinates
M83 ; use relative distances for extrusion
M900 K0.05 ; Filament gcode LA 1.5
M900 K30 ; Filament gcode LA 1.0
;LAYER_CHANGE
;Z:0.2
;HEIGHT:0.2
;BEFORE_LAYER_CHANGE
G92 E0.0
;0.2


M73 P1 R8
M73 Q1 S8
G1 E-0.80000 F2100.000
G1 Z0.400 F10800.000
;AFTER_LAYER_CHANGE
;0.2
G1 X110.336 Y92.631
G1 Z0.200
G1 E0.80000 F2100.000
M204 S1000
;TYPE:Skirt
;WIDTH:0.42
G1 F1200.000
G1 X110.492 Y91.983 E0.02090
G1 X110.797 Y91.394 E0.02078
G1 X111.236 Y90.893 E0.02090
G1 X111.783 Y90.512 E0.02090
G1 X112.275 Y90.309 E0.01669
G1 X112.793 Y90.206 E0.01656
G1 X114.939 Y90.191 E0.06729
G1 X137.090 Y90.514 E0.69459
M73 P1 R7
G1 X137.687 Y90.616 E0.01899
G1 X138.244 Y90.844 E0.01886
G1 X138.741 Y91.190 E0.01899
G1 X139.150 Y91.636 E0.01899
G1 X139.518 Y92.329 E0.02460
G1 X139.677 Y93.101 E0.02473
G1 X139.575 Y98.838 E0.17991
M73 Q2 S8
G1 X136.820 Y116.881 E0.57228
M73 P2 R7
M73 Q2 S7
G1 X136.442 Y117.832 E0.03208
G1 X135.743 Y118.579 E0.03208
G1 X135.093 Y118.932 E0.02320
G1 X134.376 Y119.099 E0.02307
G1 X125.068 Y119.804 E0.29270
G1 X123.221 Y119.764 E0.05791
G1 X113.309 Y116.938 E0.32318
G1 X112.562 Y116.550 E0.02638
G1 X111.970 Y115.958 E0.02625
G1 X111.605 Y115.277 E0.02422
G1 X111.444 Y114.522 E0.02422
G1 X110.339 Y92.691 E0.68538
;WIPE_START
G1 F8640.000
G1 X110.492 Y91.983 E-0.16727
G1 X110.797 Y91.394 E-0.15299
G1 X111.236 Y90.893 E-0.15393
G1 X111.783 Y90.512 E-0.15393
G1 X112.275 Y90.309 E-0.12288
G1 X112.314 Y90.302 E-0.00899
;WIPE_END
G1 E-0.04000 F2100.000
G1 Z0.600 F10800.000
G1 X112.004 Y90.822
G1 Z0.200
G1 E0.80000 F2100.000
G1 F1200.000
G1 X112.868 Y90.577 E0.02813
G1 X114.939 Y90.569 E0.06495
G1 X137.053 Y90.889 E0.69344
M73 P3 R7
M73 Q3 S7
G1 X137.567 Y90.974 E0.01633
G1 X138.050 Y91.168 E0.01633
G1 X138.480 Y91.463 E0.01633
G1 X138.834 Y91.844 E0.01633
G1 X139.163 Y92.456 E0.02178
G1 X139.301 Y93.136 E0.02178
G1 X139.202 Y98.784 E0.17711
G1 X136.452 Y116.798 E0.57135
G1 X136.132 Y117.616 E0.02755
G1 X135.534 Y118.265 E0.02767
G1 X134.965 Y118.577 E0.02036
G1 X134.332 Y118.724 E0.02036
G1 X125.046 Y119.427 E0.29200
G1 X123.265 Y119.390 E0.05586
G1 X113.444 Y116.585 E0.32025
G1 X112.798 Y116.255 E0.02272
G1 X112.283 Y115.746 E0.02272
G1 X111.961 Y115.152 E0.02119
G1 X111.819 Y114.491 E0.02119
G1 X110.709 Y92.697 E0.68423
G1 X110.844 Y92.120 E0.01858
G1 X111.117 Y91.594 E0.01858
G1 X111.512 Y91.152 E0.01858
G1 X111.954 Y90.856 E0.01670
; printing object window_clip.stl id:0 copy 0
;WIPE_START
G1 F8640.000
G1 X112.868 Y90.577 E-0.22041
G1 X114.939 Y90.569 E-0.47832
M73 Q4 S7
G1 X115.204 Y90.572 E-0.06128
;WIPE_END
G1 E-0.04000 F2100.000
G1 Z0.600 F10800.000
G1 X118.754 Y107.225
M73 P4 R7
G1 Z0.200
G1 E0.80000 F2100.000
;TYPE:Perimeter
G1 F1200.000
G1 X119.220 Y107.407 E0.01570
G1 X120.792 Y107.906 E0.05169
G1 X121.472 Y108.165 E0.02283
G1 X122.171 Y108.510 E0.02444
G1 X122.374 Y108.631 E0.00741
G1 X122.545 Y108.757 E0.00665
G1 X122.694 Y108.902 E0.00653
G1 X122.983 Y109.305 E0.01553
G1 X123.250 Y109.837 E0.01866
G1 X123.500 Y110.479 E0.02162
G1 X123.975 Y111.898 E0.04692
G1 X124.244 Y112.615 E0.02401
G1 X124.569 Y113.289 E0.02346
G1 X124.777 Y113.621 E0.01226
G1 X125.015 Y113.925 E0.01213
G1 X125.298 Y114.202 E0.01241
G1 X125.613 Y114.424 E0.01208
G1 X125.929 Y114.593 E0.01125
G1 X126.514 Y114.830 E0.01980
G1 X126.841 Y114.928 E0.01068
G1 X127.451 Y115.055 E0.01955
G1 X127.781 Y115.096 E0.01042
G1 X128.401 Y115.128 E0.01945
G1 X129.017 Y115.101 E0.01935
G1 X129.615 Y115.022 E0.01890
G1 X130.185 Y114.892 E0.01833
G1 X130.712 Y114.717 E0.01742
G1 X130.981 Y114.604 E0.00914
G1 X131.547 Y114.298 E0.02017
G1 X131.896 Y113.840 E0.01804
G1 X132.159 Y113.215 E0.02127
G1 X132.408 Y112.438 E0.02560
G1 X132.664 Y111.486 E0.03090
G1 X133.206 Y109.132 E0.07573
G1 X133.767 Y106.355 E0.08884
G1 X134.323 Y103.372 E0.09514
G1 X134.843 Y100.413 E0.09421
G1 X135.880 Y94.085 E0.20104
G1 X136.006 Y94.081 E0.00396
G1 X135.202 Y99.327 E0.16640
G1 X135.911 Y99.306 E0.02223
G1 X135.582 Y101.302 E0.06344
G1 X134.736 Y101.302 E0.02652
G1 X132.471 Y114.935 E0.43330
G1 X133.394 Y114.935 E0.02895
G1 X133.366 Y115.546 E0.01919
G1 X124.202 Y115.264 E0.28747
G1 X124.162 Y114.620 E0.02022
G1 X123.984 Y113.147 E0.04652
G1 X123.793 Y112.153 E0.03175
G1 X123.666 Y111.659 E0.01599
G1 X123.518 Y111.182 E0.01565
G1 X123.344 Y110.722 E0.01543
G1 X123.138 Y110.283 E0.01521
G1 X122.895 Y109.869 E0.01505
G1 X122.608 Y109.486 E0.01498
G1 X122.270 Y109.145 E0.01507
G1 X121.874 Y108.859 E0.01530
G1 X121.439 Y108.654 E0.01508
G1 X121.004 Y108.526 E0.01421
G1 X120.575 Y108.448 E0.01368
G1 X120.139 Y108.415 E0.01370
G1 X119.701 Y108.427 E0.01376
M73 Q5 S7
G1 X119.262 Y108.484 E0.01385
G1 X118.828 Y108.584 E0.01398
G1 X118.400 Y108.728 E0.01414
G1 X117.983 Y108.915 E0.01434
G1 X117.579 Y109.145 E0.01456
G1 X117.193 Y109.418 E0.01483
G1 X116.828 Y109.733 E0.01513
G1 X116.487 Y110.090 E0.01548
G1 X116.174 Y110.488 E0.01588
G1 X115.892 Y110.926 E0.01633
G1 X115.645 Y111.403 E0.01684
G1 X115.436 Y111.918 E0.01743
G1 X115.267 Y112.470 E0.01809
M73 P5 R7
G1 X115.142 Y113.057 E0.01884
G1 X115.078 Y113.551 E0.01560
G1 X114.938 Y113.549 E0.00439
G1 X114.958 Y112.844 E0.02211
G1 X115.033 Y112.242 E0.01903
G1 X115.152 Y111.703 E0.01730
G1 X115.310 Y111.223 E0.01584
G1 X115.499 Y110.797 E0.01462
G1 X115.713 Y110.419 E0.01361
G1 X115.948 Y110.086 E0.01277
G1 X116.198 Y109.794 E0.01205
G1 X116.459 Y109.540 E0.01140
G1 X116.723 Y109.321 E0.01078
G1 X116.980 Y109.141 E0.00983
G1 X117.489 Y108.855 E0.01832
G1 X117.903 Y108.685 E0.01402
G1 X118.757 Y108.447 E0.02779
G1 X118.754 Y107.285 E0.03643
G1 X118.447 Y107.077 F10800.000
G1 F1200.000
G1 X117.996 Y106.965 E0.01459
G1 X117.715 Y106.850 E0.00950
G1 X117.444 Y106.694 E0.00983
G1 X117.180 Y106.496 E0.01034
G1 X116.924 Y106.259 E0.01093
G1 X116.679 Y105.986 E0.01150
G1 X116.446 Y105.683 E0.01200
G1 X116.230 Y105.360 E0.01217
G1 X115.830 Y104.644 E0.02572
G1 X115.499 Y103.912 E0.02519
G1 X115.116 Y102.863 E0.03504
G1 X114.771 Y101.696 E0.03815
G1 X114.643 Y100.942 E0.02398
G1 X114.410 Y98.892 E0.06468
G1 X113.934 Y93.733 E0.16245
G1 X114.198 Y93.733 E0.00829
G1 X114.305 Y95.195 E0.04596
G1 X114.515 Y97.302 E0.06640
G1 X114.738 Y98.979 E0.05306
G1 X115.025 Y100.543 E0.04986
G1 X115.258 Y101.440 E0.02904
G1 X115.706 Y102.872 E0.04704
G1 X116.021 Y103.801 E0.03078
G1 X116.237 Y104.368 E0.01901
G1 X116.469 Y104.897 E0.01810
G1 X116.851 Y105.599 E0.02507
G1 X117.157 Y106.030 E0.01658
G1 X117.504 Y106.414 E0.01621
G1 X117.898 Y106.747 E0.01619
G1 X118.393 Y107.051 E0.01822
;WIPE_START
G1 F8640.000
G1 X117.996 Y106.965 E-0.09391
G1 X117.715 Y106.850 E-0.06998
G1 X117.444 Y106.694 E-0.07241
G1 X117.180 Y106.496 E-0.07618
G1 X116.924 Y106.259 E-0.08046
G1 X116.679 Y105.986 E-0.08466
G1 X116.446 Y105.683 E-0.08834
G1 X116.230 Y105.360 E-0.08961
G1 X116.010 Y104.965 E-0.10445
;WIPE_END
G1 E-0.04000 F2100.000
G1 Z0.600 F10800.000
G1 X135.643 Y98.937
G1 Z0.200
G1 E0.80000 F2100.000
;TYPE:External perimeter
G1 F1200.000
G1 X136.357 Y98.916 E0.02240
G1 X135.902 Y101.680 E0.08783
G1 X135.056 Y101.680 E0.02653
G1 X132.916 Y114.558 E0.40933
G1 X133.789 Y114.558 E0.02738
G1 X133.725 Y115.935 E0.04321
G1 X124.549 Y115.652 E0.28786
G1 X124.511 Y116.636 E0.03090
G1 X123.909 Y116.624 E0.01886
G1 X123.786 Y114.654 E0.06189
M73 Q6 S7
G1 X123.611 Y113.205 E0.04576
G1 X123.424 Y112.235 E0.03098
G1 X123.303 Y111.761 E0.01533
G1 X123.162 Y111.305 E0.01498
G1 X122.996 Y110.869 E0.01462
G1 X122.804 Y110.458 E0.01422
G1 X122.580 Y110.078 E0.01383
G1 X122.322 Y109.733 E0.01350
G1 X122.024 Y109.433 E0.01328
G1 X121.682 Y109.185 E0.01323
M73 P6 R7
G1 X121.304 Y109.008 E0.01308
G1 X120.917 Y108.893 E0.01267
G1 X120.527 Y108.823 E0.01242
G1 X120.130 Y108.793 E0.01247
G1 X119.730 Y108.804 E0.01256
G1 X119.329 Y108.855 E0.01268
G1 X118.930 Y108.947 E0.01282
G1 X118.538 Y109.079 E0.01299
G1 X118.154 Y109.251 E0.01319
G1 X117.782 Y109.463 E0.01342
G1 X117.426 Y109.715 E0.01368
G1 X117.088 Y110.006 E0.01399
G1 X116.772 Y110.337 E0.01434
G1 X116.481 Y110.707 E0.01474
G1 X116.219 Y111.115 E0.01521
G1 X115.988 Y111.561 E0.01575
G1 X115.791 Y112.044 E0.01636
G1 X115.632 Y112.564 E0.01705
G1 X115.514 Y113.121 E0.01784
G1 X115.438 Y113.713 E0.01872
G1 X115.427 Y113.931 E0.00685
G1 X114.580 Y113.923 E0.02655
G1 X114.559 Y113.518 E0.01270
G1 X114.582 Y112.815 E0.02207
G1 X114.661 Y112.178 E0.02013
G1 X114.788 Y111.603 E0.01845
G1 X114.957 Y111.087 E0.01702
G1 X115.162 Y110.627 E0.01581
G1 X115.395 Y110.217 E0.01478
G1 X115.650 Y109.854 E0.01391
G1 X115.923 Y109.536 E0.01313
G1 X116.206 Y109.260 E0.01242
G1 X116.494 Y109.021 E0.01172
G1 X116.778 Y108.821 E0.01089
G1 X117.325 Y108.515 E0.01964
G1 X117.780 Y108.327 E0.01544
G1 X118.379 Y108.161 E0.01949
G1 X118.377 Y107.448 E0.02234
G1 X117.878 Y107.325 E0.01611
G1 X117.549 Y107.190 E0.01116
G1 X117.236 Y107.009 E0.01134
G1 X116.938 Y106.786 E0.01167
G1 X116.655 Y106.524 E0.01208
G1 X116.389 Y106.228 E0.01249
G1 X116.139 Y105.903 E0.01284
G1 X115.908 Y105.557 E0.01304
G1 X115.493 Y104.814 E0.02669
G1 X115.150 Y104.055 E0.02613
G1 X114.757 Y102.981 E0.03585
G1 X114.403 Y101.781 E0.03924
G1 X114.270 Y100.994 E0.02501
G1 X114.035 Y98.930 E0.06513
G1 X113.520 Y93.356 E0.17554
G1 X114.549 Y93.356 E0.03224
G1 X114.681 Y95.162 E0.05680
G1 X114.889 Y97.259 E0.06605
G1 X115.111 Y98.920 E0.05257
G1 X115.394 Y100.462 E0.04914
G1 X115.621 Y101.336 E0.02832
G1 X116.064 Y102.755 E0.04661
G1 X116.376 Y103.673 E0.03041
G1 X116.586 Y104.225 E0.01851
G1 X116.808 Y104.731 E0.01731
G1 X117.172 Y105.399 E0.02386
G1 X117.452 Y105.794 E0.01518
G1 X117.766 Y106.142 E0.01472
G1 X118.122 Y106.442 E0.01458
G1 X118.511 Y106.689 E0.01444
G1 X118.920 Y106.887 E0.01426
G1 X119.345 Y107.051 E0.01430
G1 X120.916 Y107.550 E0.05167
G1 X121.623 Y107.819 E0.02373
G1 X122.351 Y108.179 E0.02546
G1 X122.583 Y108.316 E0.00844
G1 X122.790 Y108.469 E0.00807
G1 X122.974 Y108.649 E0.00808
G1 X123.146 Y108.864 E0.00864
G1 X123.457 Y109.389 E0.01912
G1 X123.597 Y109.689 E0.01037
G1 X123.855 Y110.351 E0.02228
G1 X124.330 Y111.772 E0.04699
G1 X124.591 Y112.467 E0.02327
G1 X124.899 Y113.107 E0.02227
G1 X125.086 Y113.403 E0.01098
G1 X125.297 Y113.673 E0.01073
G1 X125.540 Y113.911 E0.01068
G1 X125.811 Y114.102 E0.01039
G1 X126.090 Y114.251 E0.00989
G1 X126.640 Y114.474 E0.01862
G1 X126.933 Y114.562 E0.00960
G1 X127.513 Y114.682 E0.01857
G1 X127.814 Y114.720 E0.00951
G1 X128.402 Y114.750 E0.01846
G1 X128.984 Y114.725 E0.01827
G1 X129.548 Y114.650 E0.01783
G1 X130.083 Y114.529 E0.01722
G1 X130.579 Y114.364 E0.01638
G1 X130.817 Y114.263 E0.00812
G1 X131.297 Y114.005 E0.01706
G1 X131.567 Y113.650 E0.01399
G1 X131.805 Y113.084 E0.01924
G1 X132.046 Y112.331 E0.02479
G1 X132.299 Y111.393 E0.03047
G1 X132.837 Y109.054 E0.07524
G1 X133.397 Y106.283 E0.08864
G1 X133.952 Y103.305 E0.09499
G1 X134.471 Y100.350 E0.09408
G1 X135.558 Y93.718 E0.21069
M73 Q7 S7
G1 X136.447 Y93.689 E0.02791
G1 X135.652 Y98.877 E0.16457
M73 P7 R7
G1 X135.653 Y99.337 F10800.000
G1 X135.099 Y99.545
;TYPE:Solid infill
;WIDTH:0.439666
G1 F1200.000
G1 X135.516 Y99.962 E0.01945
G1 X135.437 Y100.444 E0.01611
G1 X135.168 Y100.175 E0.01254
G1 X135.087 Y100.655 E0.01606
G1 X135.505 Y101.073 E0.01951
;WIPE_START
G1 F8640.000
G1 X135.087 Y100.655 E-0.13653
G1 X135.168 Y100.175 E-0.11242
G1 X135.437 Y100.444 E-0.08778
G1 X135.516 Y99.962 E-0.11273
G1 X135.099 Y99.545 E-0.13613
;WIPE_END
G1 E-0.21441 F2100.000
G1 Z0.600 F10800.000
G1 X132.739 Y112.026
G1 Z0.200
G1 E0.80000 F2100.000
;TYPE:Gap fill
;WIDTH:0.139007
G1 F1200.000
G1 X132.504 Y113.044 E0.00835
;WIDTH:0.259245
G1 X132.300 Y113.794 E0.01397
G1 X132.406 Y114.633 F10800.000
;TYPE:Solid infill
;WIDTH:0.421637
G1 F1200.000
G1 X131.975 Y114.202 E0.01918
G1 X131.744 Y114.507 E0.01204
G1 X132.040 Y114.803 E0.01320
G1 X131.955 Y114.802 E0.00268
G1 X131.949 Y115.220 E0.01316
G1 X131.920 Y115.219 E0.00090
G1 X131.400 Y114.699 E0.02316
G1 X131.048 Y114.882 E0.01250
G1 X131.543 Y115.377 E0.02203
G1 X132.232 Y115.223 F10800.000
;TYPE:Gap fill
;WIDTH:0.268128
G1 F1200.000
G1 X133.191 Y115.238 E0.01797
;WIPE_START
G1 F8640.000
G1 X132.232 Y115.223 E-0.22161
;WIPE_END
G1 E-0.57839 F2100.000
G1 Z0.600 F10800.000
G1 X130.601 Y115.117
G1 Z0.200
G1 E0.80000 F2100.000
;WIDTH:0.307861
G1 F1200.000
G1 X130.434 Y115.141 E0.00373
;WIDTH:0.271779
G1 X130.266 Y115.166 E0.00323
;WIDTH:0.235696
G1 X130.066 Y115.185 E0.00323
;WIDTH:0.186353
G1 X129.875 Y115.204 E0.00229
;WIDTH:0.139836
G1 X129.684 Y115.222 E0.00155
;WIPE_START
G1 F8640.000
G1 X129.875 Y115.204 E-0.04430
;WIPE_END
G1 E-0.75570 F2100.000
G1 Z0.600 F10800.000
G1 X126.791 Y115.133
G1 Z0.200
G1 E0.80000 F2100.000
;WIDTH:0.137244
G1 F1200.000
G1 X126.268 Y115.040 E0.00417
;WIDTH:0.26561
G1 X125.954 Y114.974 E0.00595
;WIPE_START
G1 F8640.000
G1 X126.268 Y115.040 E-0.07416
;WIPE_END
G1 E-0.72584 F2100.000
G1 Z0.600 F10800.000
G1 X124.197 Y115.452
G1 Z0.200
G1 E0.80000 F2100.000
;WIDTH:0.369146
G1 F1200.000
G1 X124.202 Y115.947 E0.01342
;WIDTH:0.333787
G1 X124.208 Y116.442 E0.01197
;WIPE_START
G1 F8640.000
G1 X124.202 Y115.947 E-0.11425
;WIPE_END
G1 E-0.68575 F2100.000
G1 Z0.600 F10800.000
G1 X124.578 Y113.674
G1 Z0.200
G1 E0.80000 F2100.000
;TYPE:Solid infill
;WIDTH:0.495415
G1 F1200.000
G1 X125.702 Y114.798 E0.05980
G1 X125.654 Y115.026 E0.00875
G1 X125.278 Y115.014 E0.01414
G1 X124.386 Y114.122 E0.04746
G1 X124.458 Y114.834 E0.02692
G1 X124.793 Y115.169 E0.01782
;WIPE_START
G1 F8640.000
G1 X124.458 Y114.834 E-0.10933
G1 X124.386 Y114.122 E-0.16521
G1 X125.278 Y115.014 E-0.29123
G1 X125.654 Y115.026 E-0.08679
G1 X125.702 Y114.798 E-0.05373
G1 X125.538 Y114.633 E-0.05371
;WIPE_END
G1 E-0.04000 F2100.000
G1 Z0.600 F10800.000
G1 X124.374 Y113.621
G1 Z0.200
G1 E0.80000 F2100.000
;TYPE:Gap fill
;WIDTH:0.25286
G1 F1200.000
G1 X124.280 Y113.321 E0.00549
;WIDTH:0.212721
G1 X124.250 Y113.216 E0.00154
;WIDTH:0.177101
G1 X124.219 Y113.112 E0.00121
;WIDTH:0.14148
G1 X124.153 Y112.911 E0.00173
;WIPE_START
G1 F8640.000
G1 X124.219 Y113.112 E-0.04883
;WIPE_END
G1 E-0.75117 F2100.000
G1 Z0.600 F10800.000
G1 X122.742 Y109.321
G1 Z0.200
G1 E0.80000 F2100.000
;WIDTH:0.115614
G1 F1200.000
G1 X122.420 Y108.963 E0.00291
G1 X121.990 Y108.669 E0.00315
G1 X121.517 Y108.441 E0.00317
G1 X120.878 Y108.228 E0.00407
;WIDTH:0.241133
G1 X120.163 Y108.070 E0.01208
G1 X119.684 Y108.316 F10800.000
;TYPE:Solid infill
;WIDTH:0.495415
M73 Q8 S7
G1 F1200.000
G1 X118.867 Y107.499 E0.04346
;WIPE_START
G1 F8640.000
G1 X119.684 Y108.316 E-0.26671
;WIPE_END
G1 E-0.53329 F2100.000
G1 Z0.600 F10800.000
G1 X116.452 Y105.310
M73 P8 R7
G1 Z0.200
G1 E0.80000 F2100.000
;TYPE:Gap fill
;WIDTH:0.0976695
G1 F1200.000
G1 X116.047 Y104.535 E0.00398
G1 X115.775 Y103.888 E0.00319
;WIDTH:0.195509
G1 X115.382 Y102.775 E0.01499
